!!!OTL: Kaihuangge
!!!ARE: Asia, China,ÿShandong Zhucheng
!! III, 322
!!!SCT: C1757
!!!YEM: Copyright 1995, estate of Helmut Schaffrath.
**kern
*ICvox
*Ivox
*M2/4
*k[f#c#g#]
*A:
{8cc#
8cc#
8cc#
8b
=1
8cc#
8b
4a
=2
8ee
8ee
8ff#
8cc#
=3
4ee
4ee}
=4
{8cc#
8b
8cc#
8b
=5
8cc#
8b
8a
8f#
=6
8.f#
16e
8a
8f#
=7
4e
4e}
=8
{8.ee
16ff#
8ee
8ff#
=9
8ee
16b
16cc#
8ee
8r}
=10
{8f#
16e
16f#
8g#
8f#
=11
2e}
==
!!!AGN: Haozi
!!!AMT: simple duple
!!!AIN: vox
!!!EED: Helmut Schaffrath
!!!EEV: 1.0
*-
